X: 149
T:Sodger Laddie. HA.148
T:Soldier Laddie,aka. HA.148
M:3/4
L:1/4
Q:160
S:Henry Atkinson's original MS,Hartburn,N'umberland,1694.
O:England
A:Hartburn,Northumberland
N:Tune appears to be incomplete. NBr. cf Walsh CD 1731..CGP.
H:1/4
Z:vmp.Neil Brookes, Jan.2004
K:C
"u"g|e3/2d/2c|cGA|d2d|dag|e3/2d/2c|gGA|!
c2c|cag|e3/2d/2c|cGA|d2d|dag|e2c|!
e/2f/2 gc|e2c|cag|f2c|e/2f/2gc|d3/2e/2d|!
dag|e3/2d/2c|gGA|"tune incomplete"c2c|cag|]
